32x32/apps/com.endlessm.HatchPreviewer.svg

<svg height="32" width="32" xmlns="http://www.w3.org/2000/svg"><rect height="29" opacity=".2" rx="8.7" transform="matrix(0 -1 -1 0 0 0)" width="29" x="-31" y="-30"/><rect fill="#1e3d47" height="29" rx="8.7" transform="matrix(0 -1 -1 0 0 0)" width="29" x="-30" y="-30"/><path d="m15.5 9a7.5 7.5 0 0 0 -7.5 7.5 7.5 7.5 0 0 0 7.5 7.5 7.5 7.5 0 0 0 6.38-3.574l-6.005-3.859 6.015-3.983a7.5 7.5 0 0 0 -6.39-3.584z" opacity=".2"/><path d="m15.5 8a7.5 7.5 0 0 0 -7.5 7.5 7.5 7.5 0 0 0 7.5 7.5 7.5 7.5 0 0 0 6.38-3.574l-6.005-3.859 6.015-3.983a7.5 7.5 0 0 0 -6.39-3.584z" fill="#ffcc2c"/><circle cx="22.5" cy="16.5" opacity=".2" r="1.5"/><circle cx="22.5" cy="15.5" fill="#f26522" r="1.5"/><g fill="#f4f4f7"><path d="m9.7 1a8.68 8.68 0 0 0 -8.7 8.7v1c0-4.82 3.88-8.7 8.7-8.7h11.6c4.82 0 8.7 3.88 8.7 8.7v-1c0-4.82-3.88-8.7-8.7-8.7z" opacity=".1"/><path d="m15.5 8a7.5 7.5 0 0 0 -7.5 7.5 7.5 7.5 0 0 0 .021.447 7.5 7.5 0 0 1 7.479-6.947 7.5 7.5 0 0 1 5.912 2.9l.479-.316a7.5 7.5 0 0 0 -6.391-3.584zm1.14 8.06-.765.508 5.523 3.55a7.5 7.5 0 0 0 .48-.692l-5.237-3.365zm5.86-2.06a1.5 1.5 0 0 0 -1.5 1.5 1.5 1.5 0 0 0 .088.5 1.5 1.5 0 0 1 1.412-1 1.5 1.5 0 0 1 1.412 1 1.5 1.5 0 0 0 .088-.5 1.5 1.5 0 0 0 -1.5-1.5z" opacity=".2"/></g></svg>

<svg xmlns="http://www.w3.org/2000/svg" width="32" height="32" version="1"><rect style="opacity:.2" width="29" height="29" x="-31" y="-30" rx="8.7" ry="8.7" transform="matrix(0 -1 -1 0 0 0)"/><rect style="fill:#1e3d47" width="29" height="29" x="-30" y="-30" rx="8.7" ry="8.7" transform="matrix(0 -1 -1 0 0 0)"/><path style="opacity:.2" d="M15.5 9A7.5 7.5 0 0 0 8 16.5a7.5 7.5 0 0 0 7.5 7.5 7.5 7.5 0 0 0 6.38-3.574l-6.005-3.859 6.015-3.983A7.5 7.5 0 0 0 15.5 9z"/><path style="fill:#ffcc2c" d="M15.5 8A7.5 7.5 0 0 0 8 15.5a7.5 7.5 0 0 0 7.5 7.5 7.5 7.5 0 0 0 6.38-3.574l-6.005-3.859 6.015-3.983A7.5 7.5 0 0 0 15.5 8z"/><circle style="opacity:.2" cx="22.5" cy="16.5" r="1.5"/><circle style="fill:#f26522" cx="22.5" cy="15.5" r="1.5"/><path style="fill:#f4f4f7;opacity:.1" d="M9.7 1A8.68 8.68 0 0 0 1 9.7v1C1 5.88 4.88 2 9.7 2h11.6c4.82 0 8.7 3.88 8.7 8.7v-1C30 4.88 26.12 1 21.3 1H9.7z"/><path style="opacity:.2;fill:#f4f4f7" d="M15.5 8A7.5 7.5 0 0 0 8 15.5a7.5 7.5 0 0 0 .021.447A7.5 7.5 0 0 1 15.5 9a7.5 7.5 0 0 1 5.912 2.9l.479-.316A7.5 7.5 0 0 0 15.5 8zm1.14 8.06-.765.508 5.523 3.55a7.5 7.5 0 0 0 .48-.692l-5.237-3.365zM22.5 14a1.5 1.5 0 0 0-1.5 1.5 1.5 1.5 0 0 0 .088.5 1.5 1.5 0 0 1 1.412-1 1.5 1.5 0 0 1 1.412 1 1.5 1.5 0 0 0 .088-.5 1.5 1.5 0 0 0-1.5-1.5z"/></svg>
